Newaita-dark/apps/64/qv4l2.svg

<?xml version="1.0" encoding="UTF-8"?>
<svg xmlns="http://www.w3.org/2000/svg" xmlns:xlink="http://www.w3.org/1999/xlink" width="64pt" height="64pt" viewBox="0 0 64 64" version="1.1">
<defs>
<linearGradient id="linear0" gradientUnits="userSpaceOnUse" x1="111.125038" y1="233.499985" x2="111.125038" y2="254.666641" gradientTransform="matrix(0.125012,0,0,0.125012,-0.00000763012,26.87757)">
<stop offset="0" style="stop-color:rgb(0%,0%,0%);stop-opacity:0.27451;"/>
<stop offset="1" style="stop-color:rgb(0%,0%,0%);stop-opacity:0;"/>
</linearGradient>
<radialGradient id="radial0" gradientUnits="userSpaceOnUse" cx="450.908936" cy="189.579361" fx="450.908936" fy="189.579361" r="21.166656" gradientTransform="matrix(0.000000348341,-0.156265,-0.281277,-0.000000203077,67.216093,127.190665)">
<stop offset="0" style="stop-color:rgb(0%,0%,0%);stop-opacity:0.313726;"/>
<stop offset="0.222222" style="stop-color:rgb(0%,0%,0%);stop-opacity:0.27451;"/>
<stop offset="1" style="stop-color:rgb(0%,0%,0%);stop-opacity:0;"/>
</radialGradient>
<radialGradient id="radial1" gradientUnits="userSpaceOnUse" cx="450.908936" cy="189.579361" fx="450.908936" fy="189.579361" r="21.166656" gradientTransform="matrix(-0.000000348341,0.156265,0.281277,0.000000203077,-39.432194,-15.054958)">
<stop offset="0" style="stop-color:rgb(0%,0%,0%);stop-opacity:0.313726;"/>
<stop offset="0.222222" style="stop-color:rgb(0%,0%,0%);stop-opacity:0.27451;"/>
<stop offset="1" style="stop-color:rgb(0%,0%,0%);stop-opacity:0;"/>
</radialGradient>
<radialGradient id="radial2" gradientUnits="userSpaceOnUse" cx="450.908936" cy="189.579361" fx="450.908936" fy="189.579361" r="21.166656" gradientTransform="matrix(-0.000000348341,-0.156265,0.281277,-0.000000203077,-39.432194,127.190665)">
<stop offset="0" style="stop-color:rgb(0%,0%,0%);stop-opacity:0.313726;"/>
<stop offset="0.222222" style="stop-color:rgb(0%,0%,0%);stop-opacity:0.27451;"/>
<stop offset="1" style="stop-color:rgb(0%,0%,0%);stop-opacity:0;"/>
</radialGradient>
<radialGradient id="radial3" gradientUnits="userSpaceOnUse" cx="450.908936" cy="189.579361" fx="450.908936" fy="189.579361" r="21.166656" gradientTransform="matrix(0.000000348341,0.156265,-0.281277,0.000000203077,67.216089,-15.054959)">
<stop offset="0" style="stop-color:rgb(0%,0%,0%);stop-opacity:0.313726;"/>
<stop offset="0.222222" style="stop-color:rgb(0%,0%,0%);stop-opacity:0.27451;"/>
<stop offset="1" style="stop-color:rgb(0%,0%,0%);stop-opacity:0;"/>
</radialGradient>
<linearGradient id="linear1" gradientUnits="userSpaceOnUse" x1="127" y1="233.5" x2="126.999992" y2="-168.666672" gradientTransform="matrix(0.125012,0,0,0.125012,-1.323042,26.877566)">
<stop offset="0" style="stop-color:rgb(47.450981%,33.333334%,28.235295%);stop-opacity:1;"/>
<stop offset="1" style="stop-color:rgb(55.29412%,43.137255%,38.82353%);stop-opacity:1;"/>
</linearGradient>
<linearGradient id="linear2" gradientUnits="userSpaceOnUse" x1="111.125038" y1="233.499985" x2="111.125038" y2="254.666641" gradientTransform="matrix(0.125012,0,0,0.125012,35.722146,26.87757)">
<stop offset="0" style="stop-color:rgb(0%,0%,0%);stop-opacity:0.27451;"/>
<stop offset="1" style="stop-color:rgb(0%,0%,0%);stop-opacity:0;"/>
</linearGradient>
<radialGradient id="radial4" gradientUnits="userSpaceOnUse" cx="450.908936" cy="189.579361" fx="450.908936" fy="189.579361" r="21.166656" gradientTransform="matrix(0.000000348341,-0.156265,-0.281277,-0.000000203077,102.938246,127.190665)">
<stop offset="0" style="stop-color:rgb(0%,0%,0%);stop-opacity:0.313726;"/>
<stop offset="0.222222" style="stop-color:rgb(0%,0%,0%);stop-opacity:0.27451;"/>
<stop offset="1" style="stop-color:rgb(0%,0%,0%);stop-opacity:0;"/>
</radialGradient>
<radialGradient id="radial5" gradientUnits="userSpaceOnUse" cx="450.908936" cy="189.579361" fx="450.908936" fy="189.579361" r="21.166656" gradientTransform="matrix(-0.000000348341,0.156265,0.281277,0.000000203077,-3.710041,-15.054958)">
<stop offset="0" style="stop-color:rgb(0%,0%,0%);stop-opacity:0.313726;"/>
<stop offset="0.222222" style="stop-color:rgb(0%,0%,0%);stop-opacity:0.27451;"/>
<stop offset="1" style="stop-color:rgb(0%,0%,0%);stop-opacity:0;"/>
</radialGradient>
<radialGradient id="radial6" gradientUnits="userSpaceOnUse" cx="450.908936" cy="189.579361" fx="450.908936" fy="189.579361" r="21.166656" gradientTransform="matrix(-0.000000348341,-0.156265,0.281277,-0.000000203077,-3.710041,127.190665)">
<stop offset="0" style="stop-color:rgb(0%,0%,0%);stop-opacity:0.313726;"/>
<stop offset="0.222222" style="stop-color:rgb(0%,0%,0%);stop-opacity:0.27451;"/>
<stop offset="1" style="stop-color:rgb(0%,0%,0%);stop-opacity:0;"/>
</radialGradient>
<radialGradient id="radial7" gradientUnits="userSpaceOnUse" cx="450.908936" cy="189.579361" fx="450.908936" fy="189.579361" r="21.166656" gradientTransform="matrix(0.000000348341,0.156265,-0.281277,0.000000203077,102.938243,-15.054959)">
<stop offset="0" style="stop-color:rgb(0%,0%,0%);stop-opacity:0.313726;"/>
<stop offset="0.222222" style="stop-color:rgb(0%,0%,0%);stop-opacity:0.27451;"/>
<stop offset="1" style="stop-color:rgb(0%,0%,0%);stop-opacity:0;"/>
</radialGradient>
<linearGradient id="linear3" gradientUnits="userSpaceOnUse" x1="127" y1="233.5" x2="116.416656" y2="-168.666672" gradientTransform="matrix(0.125012,0,0,0.125012,34.399117,26.877566)">
<stop offset="0" style="stop-color:rgb(47.450981%,33.333334%,28.235295%);stop-opacity:1;"/>
<stop offset="1" style="stop-color:rgb(55.29412%,43.137255%,38.82353%);stop-opacity:1;"/>
</linearGradient>
<linearGradient id="linear4" gradientUnits="userSpaceOnUse" x1="305.954559" y1="-37.962509" x2="305.954559" y2="-141.414581" gradientTransform="matrix(0.150699,0,0,0.434824,-11.708026,67.282696)">
<stop offset="0" style="stop-color:rgb(47.450981%,33.333334%,28.235295%);stop-opacity:1;"/>
<stop offset="1" style="stop-color:rgb(55.29412%,43.137255%,38.82353%);stop-opacity:1;"/>
</linearGradient>
<linearGradient id="linear5" gradientUnits="userSpaceOnUse" x1="285.75" y1="-168.666672" x2="285.75" y2="191.166672" gradientTransform="matrix(0.125012,0,0,0.125012,0,26.877566)">
<stop offset="0" style="stop-color:rgb(63.137257%,53.333336%,49.803922%);stop-opacity:1;"/>
<stop offset="1" style="stop-color:rgb(73.725492%,66.666669%,64.313728%);stop-opacity:1;"/>
</linearGradient>
</defs>
<g id="surface1">
<path style=" stroke:none;fill-rule:nonzero;fill:url(#linear0);" d="M 13.230469 56.066406 L 14.554688 56.066406 L 14.554688 58.714844 L 13.230469 58.714844 Z M 13.230469 56.066406 "/>
<path style=" stroke:none;fill-rule:nonzero;fill:url(#radial0);" d="M 14.554688 56.066406 L 19.84375 56.066406 L 19.84375 53.421875 L 14.554688 53.421875 Z M 14.554688 56.066406 "/>
<path style=" stroke:none;fill-rule:nonzero;fill:url(#radial1);" d="M 13.230469 56.066406 L 7.9375 56.066406 L 7.9375 58.714844 L 13.230469 58.714844 Z M 13.230469 56.066406 "/>
<path style=" stroke:none;fill-rule:nonzero;fill:url(#radial2);" d="M 13.230469 56.066406 L 7.9375 56.066406 L 7.9375 53.421875 L 13.230469 53.421875 Z M 13.230469 56.066406 "/>
<path style=" stroke:none;fill-rule:nonzero;fill:url(#radial3);" d="M 14.554688 56.066406 L 19.84375 56.066406 L 19.84375 58.714844 L 14.554688 58.714844 Z M 14.554688 56.066406 "/>
<path style=" stroke:none;fill-rule:nonzero;fill:url(#linear1);" d="M 11.90625 48.128906 L 15.875 48.128906 C 16.605469 48.128906 17.199219 48.722656 17.199219 49.453125 L 17.199219 54.746094 C 17.199219 55.476562 16.605469 56.066406 15.875 56.066406 L 11.90625 56.066406 C 11.175781 56.066406 10.585938 55.476562 10.585938 54.746094 L 10.585938 49.453125 C 10.585938 48.722656 11.175781 48.128906 11.90625 48.128906 Z M 11.90625 48.128906 "/>
<path style=" stroke:none;fill-rule:nonzero;fill:rgb(0%,0%,0%);fill-opacity:0.235294;" d="M 10.585938 50.777344 L 17.199219 50.777344 L 17.199219 52.097656 L 10.585938 52.097656 Z M 10.585938 50.777344 "/>
<path style=" stroke:none;fill-rule:nonzero;fill:url(#linear2);" d="M 48.953125 56.066406 L 50.277344 56.066406 L 50.277344 58.714844 L 48.953125 58.714844 Z M 48.953125 56.066406 "/>
<path style=" stroke:none;fill-rule:nonzero;fill:url(#radial4);" d="M 50.277344 56.066406 L 55.566406 56.066406 L 55.566406 53.421875 L 50.277344 53.421875 Z M 50.277344 56.066406 "/>
<path style=" stroke:none;fill-rule:nonzero;fill:url(#radial5);" d="M 48.953125 56.066406 L 43.660156 56.066406 L 43.660156 58.714844 L 48.953125 58.714844 Z M 48.953125 56.066406 "/>
<path style=" stroke:none;fill-rule:nonzero;fill:url(#radial6);" d="M 48.953125 56.066406 L 43.660156 56.066406 L 43.660156 53.421875 L 48.953125 53.421875 Z M 48.953125 56.066406 "/>
<path style=" stroke:none;fill-rule:nonzero;fill:url(#radial7);" d="M 50.277344 56.066406 L 55.566406 56.066406 L 55.566406 58.714844 L 50.277344 58.714844 Z M 50.277344 56.066406 "/>
<path style=" stroke:none;fill-rule:nonzero;fill:url(#linear3);" d="M 47.628906 48.128906 L 51.597656 48.128906 C 52.328125 48.128906 52.921875 48.722656 52.921875 49.453125 L 52.921875 54.746094 C 52.921875 55.476562 52.328125 56.066406 51.597656 56.066406 L 47.628906 56.066406 C 46.898438 56.066406 46.304688 55.476562 46.304688 54.746094 L 46.304688 49.453125 C 46.304688 48.722656 46.898438 48.128906 47.628906 48.128906 Z M 47.628906 48.128906 "/>
<path style=" stroke:none;fill-rule:nonzero;fill:rgb(0%,0%,0%);fill-opacity:0.235294;" d="M 46.304688 50.777344 L 52.921875 50.777344 L 52.921875 52.097656 L 46.304688 52.097656 Z M 46.304688 50.777344 "/>
<path style="fill:none;stroke-width:3;stroke-linecap:square;stroke-linejoin:round;stroke:rgb(12.941177%,12.941177%,12.941177%);stroke-opacity:1;stroke-miterlimit:4;" d="M 380.994867 169.994485 L 412.741835 169.994485 C 418.585027 169.994485 423.334574 174.744031 423.334574 180.587223 L 423.334574 222.92693 C 423.334574 228.770122 418.585027 233.488421 412.741835 233.488421 L 380.994867 233.488421 C 375.151675 233.488421 370.402128 228.770122 370.402128 222.92693 L 370.402128 180.587223 C 370.402128 174.744031 375.151675 169.994485 380.994867 169.994485 Z M 380.994867 169.994485 " transform="matrix(0.125012,0,0,0.125012,0,26.877566)"/>
<path style="fill:none;stroke-width:3;stroke-linecap:square;stroke-linejoin:round;stroke:rgb(12.941177%,12.941177%,12.941177%);stroke-opacity:1;stroke-miterlimit:4;" d="M 95.240905 169.994485 L 126.987873 169.994485 C 132.831065 169.994485 137.580612 174.744031 137.580612 180.587223 L 137.580612 222.92693 C 137.580612 228.770122 132.831065 233.488421 126.987873 233.488421 L 95.240905 233.488421 C 89.397713 233.488421 84.679414 228.770122 84.679414 222.92693 L 84.679414 180.587223 C 84.679414 174.744031 89.397713 169.994485 95.240905 169.994485 Z M 95.240905 169.994485 " transform="matrix(0.125012,0,0,0.125012,0,26.877566)"/>
<path style=" stroke:none;fill-rule:nonzero;fill:url(#linear4);" d="M 7.9375 5.792969 L 55.566406 5.792969 C 57.027344 5.792969 58.214844 6.976562 58.214844 8.4375 L 58.214844 48.128906 C 58.214844 49.589844 57.027344 50.777344 55.566406 50.777344 L 7.9375 50.777344 C 6.476562 50.777344 5.292969 49.589844 5.292969 48.128906 L 5.292969 8.4375 C 5.292969 6.976562 6.476562 5.792969 7.9375 5.792969 Z M 7.9375 5.792969 "/>
<path style=" stroke:none;fill-rule:nonzero;fill:rgb(100%,100%,100%);fill-opacity:0.392157;" d="M 7.9375 5.972656 C 6.472656 5.972656 5.292969 7.152344 5.292969 8.617188 L 5.292969 8.949219 C 5.292969 7.484375 6.472656 6.300781 7.9375 6.300781 L 55.566406 6.300781 C 57.035156 6.300781 58.214844 7.484375 58.214844 8.949219 L 58.214844 8.617188 C 58.214844 7.152344 57.035156 5.972656 55.566406 5.972656 Z M 7.9375 5.972656 "/>
<path style=" stroke:none;fill-rule:nonzero;fill:url(#linear5);" d="M 11.90625 11.085938 L 51.597656 11.085938 C 52.328125 11.085938 52.921875 11.675781 52.921875 12.40625 L 52.921875 44.160156 C 52.921875 44.890625 52.328125 45.484375 51.597656 45.484375 L 11.90625 45.484375 C 11.175781 45.484375 10.585938 44.890625 10.585938 44.160156 L 10.585938 12.40625 C 10.585938 11.675781 11.175781 11.085938 11.90625 11.085938 Z M 11.90625 11.085938 "/>
<path style=" stroke:none;fill-rule:nonzero;fill:rgb(0%,0%,0%);fill-opacity:0.235294;" d="M 5.292969 47.390625 L 5.292969 48.128906 C 5.292969 49.59375 6.472656 50.777344 7.9375 50.777344 L 55.566406 50.777344 C 57.035156 50.777344 58.214844 49.59375 58.214844 48.128906 L 58.214844 47.390625 C 58.214844 48.855469 57.035156 50.035156 55.566406 50.035156 L 7.9375 50.035156 C 6.472656 50.035156 5.292969 48.855469 5.292969 47.390625 Z M 5.292969 47.390625 "/>
<path style=" stroke:none;fill-rule:nonzero;fill:rgb(12.941177%,12.941177%,12.941177%);fill-opacity:1;" d="M 7.9375 5.605469 C 6.371094 5.605469 5.105469 6.871094 5.105469 8.4375 L 5.105469 48.128906 C 5.105469 49.695312 6.371094 50.964844 7.9375 50.964844 L 55.566406 50.964844 C 57.132812 50.964844 58.402344 49.695312 58.402344 48.128906 L 58.402344 8.4375 C 58.402344 6.871094 57.132812 5.605469 55.566406 5.605469 Z M 7.9375 5.980469 L 55.566406 5.980469 C 56.933594 5.980469 58.027344 7.074219 58.027344 8.4375 L 58.027344 48.128906 C 58.027344 49.496094 56.933594 50.589844 55.566406 50.589844 L 7.9375 50.589844 C 6.574219 50.589844 5.480469 49.496094 5.480469 48.128906 L 5.480469 8.4375 C 5.480469 7.074219 6.574219 5.980469 7.9375 5.980469 Z M 7.9375 5.980469 "/>
<path style=" stroke:none;fill-rule:nonzero;fill:rgb(100%,100%,100%);fill-opacity:0.392157;" d="M 10.585938 44.160156 L 10.585938 45.152344 C 10.585938 45.886719 11.175781 46.476562 11.90625 46.476562 L 51.597656 46.476562 C 52.332031 46.476562 52.921875 45.886719 52.921875 45.152344 L 52.921875 44.160156 C 52.921875 44.894531 52.332031 45.484375 51.597656 45.484375 L 11.90625 45.484375 C 11.175781 45.484375 10.585938 44.894531 10.585938 44.160156 Z M 10.585938 44.160156 "/>
<path style=" stroke:none;fill-rule:nonzero;fill:rgb(0%,0%,0%);fill-opacity:0.235294;" d="M 10.585938 13.398438 L 10.585938 12.40625 C 10.585938 11.675781 11.175781 11.085938 11.90625 11.085938 L 51.597656 11.085938 C 52.332031 11.085938 52.921875 11.675781 52.921875 12.40625 L 52.921875 13.398438 C 52.921875 12.667969 52.332031 12.078125 51.597656 12.078125 L 11.90625 12.078125 C 11.175781 12.078125 10.585938 12.667969 10.585938 13.398438 Z M 10.585938 13.398438 "/>
<path style="fill:none;stroke-width:3;stroke-linecap:round;stroke-linejoin:miter;stroke:rgb(12.941177%,12.941177%,12.941177%);stroke-opacity:1;stroke-miterlimit:4;" d="M 95.240905 -126.320968 L 412.741835 -126.320968 C 418.585027 -126.320968 423.334574 -121.602669 423.334574 -115.759477 L 423.334574 138.247517 C 423.334574 144.090709 418.585027 148.840255 412.741835 148.840255 L 95.240905 148.840255 C 89.397713 148.840255 84.679414 144.090709 84.679414 138.247517 L 84.679414 -115.759477 C 84.679414 -121.602669 89.397713 -126.320968 95.240905 -126.320968 Z M 95.240905 -126.320968 " transform="matrix(0.125012,0,0,0.125012,0,26.877566)"/>
<path style=" stroke:none;fill-rule:nonzero;fill:rgb(0%,0%,0%);fill-opacity:0.235294;" d="M 10.585938 53.753906 L 10.585938 54.746094 C 10.585938 55.476562 11.175781 56.066406 11.90625 56.066406 L 15.875 56.066406 C 16.609375 56.066406 17.199219 55.476562 17.199219 54.746094 L 17.199219 53.753906 C 17.199219 54.484375 16.609375 55.074219 15.875 55.074219 L 11.90625 55.074219 C 11.175781 55.074219 10.585938 54.484375 10.585938 53.753906 Z M 10.585938 53.753906 "/>
<path style=" stroke:none;fill-rule:nonzero;fill:rgb(0%,0%,0%);fill-opacity:0.235294;" d="M 46.304688 53.753906 L 46.304688 54.746094 C 46.304688 55.476562 46.898438 56.066406 47.628906 56.066406 L 51.597656 56.066406 C 52.332031 56.066406 52.921875 55.476562 52.921875 54.746094 L 52.921875 53.753906 C 52.921875 54.484375 52.332031 55.074219 51.597656 55.074219 L 47.628906 55.074219 C 46.898438 55.074219 46.304688 54.484375 46.304688 53.753906 Z M 46.304688 53.753906 "/>
</g>
</svg>

<svg xmlns="http://www.w3.org/2000/svg" width="64pt" height="64pt" viewBox="0 0 64 64"><defs><linearGradient id="a" gradientUnits="userSpaceOnUse" x1="111.125" y1="233.5" x2="111.125" y2="254.667" gradientTransform="translate(0 26.878) scale(.12501)"><stop offset="0" stop-opacity=".275"/><stop offset="1" stop-opacity="0"/></linearGradient><radialGradient id="b" gradientUnits="userSpaceOnUse" cx="450.909" cy="189.579" fx="450.909" fy="189.579" r="21.167" gradientTransform="matrix(0 -.15626 -.28128 0 67.216 127.19)"><stop offset="0" stop-opacity=".314"/><stop offset=".222" stop-opacity=".275"/><stop offset="1" stop-opacity="0"/></radialGradient><radialGradient id="c" gradientUnits="userSpaceOnUse" cx="450.909" cy="189.579" fx="450.909" fy="189.579" r="21.167" gradientTransform="matrix(0 .15626 .28128 0 -39.432 -15.055)"><stop offset="0" stop-opacity=".314"/><stop offset=".222" stop-opacity=".275"/><stop offset="1" stop-opacity="0"/></radialGradient><radialGradient id="d" gradientUnits="userSpaceOnUse" cx="450.909" cy="189.579" fx="450.909" fy="189.579" r="21.167" gradientTransform="matrix(0 -.15626 .28128 0 -39.432 127.19)"><stop offset="0" stop-opacity=".314"/><stop offset=".222" stop-opacity=".275"/><stop offset="1" stop-opacity="0"/></radialGradient><radialGradient id="e" gradientUnits="userSpaceOnUse" cx="450.909" cy="189.579" fx="450.909" fy="189.579" r="21.167" gradientTransform="matrix(0 .15626 -.28128 0 67.216 -15.055)"><stop offset="0" stop-opacity=".314"/><stop offset=".222" stop-opacity=".275"/><stop offset="1" stop-opacity="0"/></radialGradient><linearGradient id="f" gradientUnits="userSpaceOnUse" x1="127" y1="233.5" x2="127" y2="170" gradientTransform="translate(-10.583)"><stop offset="0" stop-color="#795548"/><stop offset="1" stop-color="#8d6e63"/></linearGradient><linearGradient id="g" gradientUnits="userSpaceOnUse" x1="111.125" y1="233.5" x2="111.125" y2="254.667" gradientTransform="translate(35.722 26.878) scale(.12501)"><stop offset="0" stop-opacity=".275"/><stop offset="1" stop-opacity="0"/></linearGradient><radialGradient id="h" gradientUnits="userSpaceOnUse" cx="450.909" cy="189.579" fx="450.909" fy="189.579" r="21.167" gradientTransform="matrix(0 -.15626 -.28128 0 102.938 127.19)"><stop offset="0" stop-opacity=".314"/><stop offset=".222" stop-opacity=".275"/><stop offset="1" stop-opacity="0"/></radialGradient><radialGradient id="i" gradientUnits="userSpaceOnUse" cx="450.909" cy="189.579" fx="450.909" fy="189.579" r="21.167" gradientTransform="matrix(0 .15626 .28128 0 -3.71 -15.055)"><stop offset="0" stop-opacity=".314"/><stop offset=".222" stop-opacity=".275"/><stop offset="1" stop-opacity="0"/></radialGradient><radialGradient id="j" gradientUnits="userSpaceOnUse" cx="450.909" cy="189.579" fx="450.909" fy="189.579" r="21.167" gradientTransform="matrix(0 -.15626 .28128 0 -3.71 127.19)"><stop offset="0" stop-opacity=".314"/><stop offset=".222" stop-opacity=".275"/><stop offset="1" stop-opacity="0"/></radialGradient><radialGradient id="k" gradientUnits="userSpaceOnUse" cx="450.909" cy="189.579" fx="450.909" fy="189.579" r="21.167" gradientTransform="matrix(0 .15626 -.28128 0 102.938 -15.055)"><stop offset="0" stop-opacity=".314"/><stop offset=".222" stop-opacity=".275"/><stop offset="1" stop-opacity="0"/></radialGradient><linearGradient id="l" gradientUnits="userSpaceOnUse" x1="127" y1="233.5" x2="127" y2="170" gradientTransform="translate(275.167)"><stop offset="0" stop-color="#795548"/><stop offset="1" stop-color="#8d6e63"/></linearGradient><linearGradient id="m" gradientUnits="userSpaceOnUse" x1="305.955" y1="-37.963" x2="305.955" y2="-141.415" gradientTransform="matrix(.1507 0 0 .43482 -11.708 67.283)"><stop offset="0" stop-color="#795548"/><stop offset="1" stop-color="#8d6e63"/></linearGradient><linearGradient id="n" gradientUnits="userSpaceOnUse" x1="285.75" y1="-126.333" x2="285.75" y2="148.833"><stop offset="0" stop-color="#a1887f"/><stop offset="1" stop-color="#bcaaa4"/></linearGradient></defs><path d="M13.23 56.066h1.325v2.649H13.23zm0 0" fill="url(#a)"/><path d="M14.555 56.066h5.289v-2.644h-5.29zm0 0" fill="url(#b)"/><path d="M13.23 56.066H7.937v2.649h5.293zm0 0" fill="url(#c)"/><path d="M13.23 56.066H7.937v-2.644h5.293zm0 0" fill="url(#d)"/><path d="M14.555 56.066h5.289v2.649h-5.29zm0 0" fill="url(#e)"/><path d="M95.24 169.994h31.748c5.843 0 10.593 4.75 10.593 10.593v42.34c0 5.843-4.75 10.561-10.593 10.561H95.24a10.548 10.548 0 0 1-10.562-10.561v-42.34c0-5.843 4.719-10.593 10.562-10.593zm0 0" transform="translate(0 26.878) scale(.12501)" fill="url(#f)" stroke-width="3" stroke-linecap="square" stroke-linejoin="round" stroke="#212121"/><path d="M48.953 56.066h1.324v2.649h-1.324zm0 0" fill="url(#g)"/><path d="M50.277 56.066h5.29v-2.644h-5.29zm0 0" fill="url(#h)"/><path d="M48.953 56.066H43.66v2.649h5.293zm0 0" fill="url(#i)"/><path d="M48.953 56.066H43.66v-2.644h5.293zm0 0" fill="url(#j)"/><path d="M50.277 56.066h5.29v2.649h-5.29zm0 0" fill="url(#k)"/><path d="M380.995 169.994h31.747c5.843 0 10.593 4.75 10.593 10.593v42.34c0 5.843-4.75 10.561-10.593 10.561h-31.747c-5.843 0-10.593-4.718-10.593-10.561v-42.34c0-5.843 4.75-10.593 10.593-10.593zm0 0" transform="translate(0 26.878) scale(.12501)" fill="url(#l)" stroke-width="3" stroke-linecap="square" stroke-linejoin="round" stroke="#212121"/><path d="M7.938 5.793h47.628a2.647 2.647 0 0 1 2.649 2.644V48.13a2.65 2.65 0 0 1-2.649 2.648H7.937a2.647 2.647 0 0 1-2.644-2.648V8.438a2.644 2.644 0 0 1 2.644-2.645zm0 0" fill="url(#m)"/><path d="M7.938 50.777c-1.465 0-2.645-4.113-2.645-2.648 0 1.465 1.18 2.316 2.644 2.316h47.63a2.64 2.64 0 0 0 2.648-2.644v.328a2.643 2.643 0 0 1-2.649 2.648zm0 0" fill-opacity=".196"/><path d="M7.938 5.793a2.639 2.639 0 0 0-2.645 2.644v.333A2.642 2.642 0 0 1 7.937 6.12h47.63a2.643 2.643 0 0 1 2.648 2.649v-.332a2.64 2.64 0 0 0-2.649-2.645zm0 0" fill="#e6e6e6" fill-opacity=".937"/><path d="M95.24-126.321h317.502c5.843 0 10.593 4.718 10.593 10.562v254.007c0 5.843-4.75 10.592-10.593 10.592H95.24c-5.843 0-10.562-4.75-10.562-10.592V-115.76a10.548 10.548 0 0 1 10.562-10.562zm0 0" transform="translate(0 26.878) scale(.12501)" fill="url(#n)" stroke-width="3" stroke-linecap="round" stroke="#212121"/><path d="M7.938 5.605a2.83 2.83 0 0 0-2.833 2.832V48.13a2.832 2.832 0 0 0 2.832 2.836h47.63a2.836 2.836 0 0 0 2.835-2.836V8.438a2.832 2.832 0 0 0-2.836-2.833zm0 .375h47.628a2.45 2.45 0 0 1 2.461 2.457V48.13a2.45 2.45 0 0 1-2.46 2.46H7.936a2.45 2.45 0 0 1-2.457-2.46V8.438A2.449 2.449 0 0 1 7.937 5.98zm0 0" fill="#212121"/></svg>
